X:1
T:Title
%%score { 1 | 2 }
L:1/8
M:3/4
K:Ab
V:1 treble nm="Grand Piano"
V:2 bass 
V:1
 z2 z2[Q:1/4=100] E2 | AA G2 F2 | EF E2 c2 | [Ge]3 [GB] [Ge][Gd] |[M:2/4] c4 |[M:1/4] E2 | %6
[M:3/4] AA G2 F2 | EF E2 [Af]2 | [Ae]3 [Ac] [GB][Gc] |[M:2/4] A4 |[M:1/4] e2 | %11
[M:3/4] [Ge][DGd] [DGB]2 cB | AF E2 e2 | e3 c [=DAB][DAc] |[M:2/4] [EGB]4 |[M:1/4] z2 | %16
[M:3/4] AA G2 F2 | EF E2 [Af]2 | [Ae]3 [CAc] [DGB][DGc] |[M:6/4] .[CA]6 z6 |] %20
V:2
 z6 | A,,2 [E,A,C]2 [E,A,C]2 | A,,2 [E,A,C]2 [E,A,C]2 | [E,B,]3 [E,B,] [E,B,][E,E] | %4
[M:2/4][K:treble] [A,EA]4 |[M:1/4] z2 |[M:3/4][K:bass] A,,2 [E,A,C]2 [E,A,C]2 | %7
 A,,2 [E,A,C]2 [D,D]2 | [E,C]3 [E,C] [E,D][E,D] |[M:2/4][K:treble] [A,C]4 |[M:1/4] [A,CA]2 | %11
[M:3/4][K:bass] [E,D]E, E,2 CB, | A,F, E,2[K:treble] [A,CA]2 | [A,CA]3 [A,EA][K:bass] F,F, | %14
[M:2/4] E,4 |[M:1/4] E2 |[M:3/4] A,,2 [E,A,C]2 [E,A,C]2 | A,,2 [E,A,C]2 [D,D]2 | [E,C]3 E, E,E, | %19
[M:6/4] .A,6 z6 |] %20

